src/assets/mage_filter.svg

<svg width="24" height="25" viewBox="0 0 24 25" fill="none" xmlns="http://www.w3.org/2000/svg">
<path d="M21.25 12.4999H8.895M4.534 12.4999H2.75M4.534 12.4999C4.534 11.9217 4.76368 11.3672 5.17251 10.9584C5.58134 10.5496 6.13583 10.3199 6.714 10.3199C7.29217 10.3199 7.84666 10.5496 8.25549 10.9584C8.66432 11.3672 8.894 11.9217 8.894 12.4999C8.894 13.0781 8.66432 13.6326 8.25549 14.0414C7.84666 14.4502 7.29217 14.6799 6.714 14.6799C6.13583 14.6799 5.58134 14.4502 5.17251 14.0414C4.76368 13.6326 4.534 13.0781 4.534 12.4999ZM21.25 19.1069H15.502M15.502 19.1069C15.502 19.6852 15.2718 20.2403 14.8628 20.6492C14.4539 21.0582 13.8993 21.2879 13.321 21.2879C12.7428 21.2879 12.1883 21.0572 11.7795 20.6484C11.3707 20.2396 11.141 19.6851 11.141 19.1069M15.502 19.1069C15.502 18.5286 15.2718 17.9745 14.8628 17.5655C14.4539 17.1566 13.8993 16.9269 13.321 16.9269C12.7428 16.9269 12.1883 17.1566 11.7795 17.5654C11.3707 17.9742 11.141 18.5287 11.141 19.1069M11.141 19.1069H2.75M21.25 5.89289H18.145M13.784 5.89289H2.75M13.784 5.89289C13.784 5.31472 14.0137 4.76023 14.4225 4.3514C14.8313 3.94257 15.3858 3.71289 15.964 3.71289C16.2503 3.71289 16.5338 3.76928 16.7983 3.87883C17.0627 3.98839 17.3031 4.14897 17.5055 4.3514C17.7079 4.55383 17.8685 4.79415 17.9781 5.05864C18.0876 5.32313 18.144 5.60661 18.144 5.89289C18.144 6.17917 18.0876 6.46265 17.9781 6.72714C17.8685 6.99163 17.7079 7.23195 17.5055 7.43438C17.3031 7.63681 17.0627 7.79739 16.7983 7.90695C16.5338 8.0165 16.2503 8.07289 15.964 8.07289C15.3858 8.07289 14.8313 7.84321 14.4225 7.43438C14.0137 7.02555 13.784 6.47106 13.784 5.89289Z" stroke="white" stroke-width="1.5" stroke-miterlimit="10" stroke-linecap="round"/>
</svg>

<svg xmlns="http://www.w3.org/2000/svg" width="24" height="25" fill="none"><path stroke="#fff" stroke-linecap="round" stroke-miterlimit="10" stroke-width="1.5" d="M21.25 12.5H8.895m-4.361 0H2.75m1.784 0a2.18 2.18 0 1 1 4.36 0 2.18 2.18 0 0 1-4.36 0Zm16.716 6.607h-5.748m0 0a2.182 2.182 0 0 1-4.361 0m4.361 0a2.18 2.18 0 0 0-4.361 0m0 0H2.75m18.5-13.214h-3.105m-4.361 0H2.75m11.034 0a2.18 2.18 0 1 1 4.36 0 2.18 2.18 0 0 1-4.36 0Z"/></svg>
